assets/stickers/emoticons/stickers/imgly_sticker_emoticons_ninja.svg

<svg height="58" viewBox="0 0 62 58" width="62" xmlns="http://www.w3.org/2000/svg"><g fill="none"><path d="m61.3 34.5c0 13-11.9 23.5-30.3 23.5s-30.3-10.5-30.3-23.5 11.9-32.5 30.3-32.5 30.3 19.5 30.3 32.5z" fill="#f7910b"/><path d="m61.3 34.5c0 13-11.9 19.5-30.3 19.5s-30.3-6.5-30.3-19.5 11.9-34.5 30.3-34.5 30.3 21.5 30.3 34.5z" fill="#f7910b"/><path d="m31 0c18.4 0 30.3 21.5 30.3 34.5s-11.9 19.5-30.3 19.5" fill="#f9a908"/><path d="m61.3 34.5c0 13-11.9 19.5-30.3 19.5s-30.3-6.5-30.3-19.5 11.9-32.5 30.3-32.5 30.3 19.5 30.3 32.5z" fill="#f9a908"/><path d="m.7 34.5c0-13 11.9-32.5 30.3-32.5" fill="#f9c55d"/><path d="m31 2c18.4 0 30.3 19.5 30.3 32.5s-11.9 23.5-30.3 23.5" fill="#f7910b"/><path d="m31 2c18.4 0 30.3 19.5 30.3 32.5" fill="#ea7103"/><g transform="translate(17 26)"><ellipse cx="3.6" cy="4.7" fill="#ea7103" rx="3.2" ry="3.2"/><ellipse cx="24.4" cy="4.7" fill="#ea7103" rx="3.2" ry="3.2"/><ellipse cx="3.6" cy="3.8" fill="#1e4784" rx="3.2" ry="3.2"/><path d="m3.6.6c1.8 0 3.2 1.4 3.2 3.2s-1.4 3.2-3.2 3.2" fill="#00233f"/><ellipse cx="24.4" cy="3.8" fill="#1e4784" rx="3.2" ry="3.2"/><path d="m24.4.6c1.8 0 3.2 1.4 3.2 3.2s-1.5 3.2-3.2 3.2" fill="#00233f"/></g><g fill="#19bca4" transform="translate(18 22)"><path d="m6.1 3.8c-.4.8-1.5-.2-3.1-1s-3.1-1-2.8-1.8c.4-.8 2-.8 3.6 0 1.7.7 2.7 2 2.3 2.8z"/><path d="m19.7 5.3c.3.8 1.5-.1 3.2-.8 1.7-.6 3.2-.8 2.9-1.6s-1.9-.9-3.6-.3c-1.7.8-2.8 1.9-2.5 2.7z"/></g><g fill="#109da0" transform="translate(18 23)"><path d="m6.1 2.8c-.4.8-1.5-.2-3.1-1s-3.1-1-2.8-1.8"/><path d="m19.7 4.3c.3.8 1.5-.1 3.2-.8 1.7-.6 3.2-.8 2.9-1.6"/></g><g transform="translate(11 32)"><path d="m15.8 3.1c0 1.2-3.5.7-7.8.7s-7.8.6-7.8-.7c0-1.2 3.5-2.2 7.8-2.2s7.8.9 7.8 2.2z" fill="#f9c55d"/><path d="m39.8 3.1c0 1.2-3.5.7-7.8.7s-7.8.6-7.8-.7c0-1.2 3.5-2.2 7.8-2.2s7.8.9 7.8 2.2z" fill="#f9a908"/></g><ellipse cx="9.3" cy="31.5" fill="#f7910b" rx="1" ry="1"/><ellipse cx="4.8" cy="33.5" fill="#f7910b" rx="1.1" ry="1.1"/><circle cx="7.8" cy="29.5" fill="#f7910b" r="1"/><circle cx="12.4" cy="31.3" fill="#f7910b" r="1"/><g fill="#f9a908"><circle cx="51.6" cy="31.8" r="1"/><circle cx="54.1" cy="33.2" r="1"/><circle cx="48.8" cy="24.4" r="1"/><ellipse cx="48.3" cy="36" rx="1.3" ry="1.3"/><circle cx="55.5" cy="36.1" r="1"/></g><circle cx="8.3" cy="35.5" fill="#f7910b" r="1"/><circle cx="9.1" cy="27.1" fill="#f7910b" r="1"/><ellipse cx="3.8" cy="13.3" fill="#25a1d8" rx="1.1" ry="1.1"/><ellipse cx="7" cy="9.8" fill="#25a1d8" rx="1" ry="1"/><circle cx="58.2" cy="15.7" fill="#0767a8" r="1"/><ellipse cx="57.4" cy="12.8" fill="#0767a8" rx="1" ry="1"/><circle cx="60" cy="13.3" fill="#0767a8" r="1"/><ellipse cx="5" cy="16.3" fill="#25a1d8" rx="1" ry="1"/><path d="m31 0c-18.4 0-30.3 21.5-30.3 34.5s11.9 23.5 30.3 23.5 30.3-10.5 30.3-23.5-11.9-34.5-30.3-34.5zm0 37c-13.4 0-24.3-.8-24.3-9.9 0-9 10.9-5.3 24.3-5.3s24.2-3.8 24.2 5.3-10.8 9.9-24.2 9.9z" fill="#25a1d8"/><path d="m61.3 34.5c0-13-11.9-34.5-30.3-34.5-6.5 0-12.3 2.7-16.9 6.8-1.9 4.4-3.1 9.4-3.5 14.8 4.3-1.3 11.8.3 20.4.3 13.4 0 24.2-3.8 24.2 5.3 0 9-10.9 9.9-24.2 9.9-8.1 0-15.2-.3-19.6-2.5 2.3 11.4 8.5 20.3 16.4 23.4h3.2c18.4 0 30.3-10.5 30.3-23.5z" fill="#0767a8"/><path d="m31 7.2c10.5 0 18.9.7 18.9 7.7 0 7.1-8.4 7.1-18.9 7.1s-18.9-.1-18.9-7.1 8.4-7.7 18.9-7.7z" fill="#c8d4db"/><path d="m12.1 14.2c.6 5.3 8.8 5.4 18.9 5.4s18.3-.1 18.9-5.4c-.6-6.4-8.8-7-18.9-7s-18.3.6-18.9 7z" fill="#e1eaef"/><path d="m30.7 9 1.4 2.9 3.2.5-2.3 2.2.6 3.2-2.9-1.5-2.8 1.5.5-3.2-2.3-2.2 3.2-.5z" fill="#25a1d8"/><path d="m30.7 9 1.4 2.9 3.2.5-2.3 2.2.6 3.2-2.9-1.5-2.8 1.5 1.4-2.3-3.2-3.1 4.1.3z" fill="#0767a8"/></g></svg>

<?xml version="1.0" encoding="UTF-8"?>
<svg width="62px" height="58px" viewBox="0 0 62 58" version="1.1" xmlns="http://www.w3.org/2000/svg" xmlns:xlink="http://www.w3.org/1999/xlink">
    <!-- Generator: Sketch 43.1 (39012) - http://www.bohemiancoding.com/sketch -->
    <title>imgly_sticker_emoticons_ninja</title>
    <desc>Created with Sketch.</desc>
    <defs></defs>
    <g id="Page-1" stroke="none" stroke-width="1" fill="none" fill-rule="evenodd">
        <g id="ninja" fill-rule="nonzero">
            <g id="Group">
                <path d="M61.3,34.5 C61.3,47.5 49.4,58 31,58 C12.6,58 0.7,47.5 0.7,34.5 C0.7,21.5 12.6,2 31,2 C49.4,2 61.3,21.5 61.3,34.5 Z" id="Shape" fill="#F7910B"></path>
                <path d="M61.3,34.5 C61.3,47.5 49.4,54 31,54 C12.6,54 0.7,47.5 0.7,34.5 C0.7,21.5 12.6,0 31,0 C49.4,0 61.3,21.5 61.3,34.5 Z" id="Shape" fill="#F7910B"></path>
                <path d="M31,0 C49.4,0 61.3,21.5 61.3,34.5 C61.3,47.5 49.4,54 31,54" id="Shape" fill="#F9A908"></path>
                <path d="M61.3,34.5 C61.3,47.5 49.4,54 31,54 C12.6,54 0.7,47.5 0.7,34.5 C0.7,21.5 12.6,2 31,2 C49.4,2 61.3,21.5 61.3,34.5 Z" id="Shape" fill="#F9A908"></path>
                <path d="M0.7,34.5 C0.7,21.5 12.6,2 31,2" id="Shape" fill="#F9C55D"></path>
                <path d="M31,2 C49.4,2 61.3,21.5 61.3,34.5 C61.3,47.5 49.4,58 31,58" id="Shape" fill="#F7910B"></path>
                <path d="M31,2 C49.4,2 61.3,21.5 61.3,34.5" id="Shape" fill="#EA7103"></path>
                <g transform="translate(17.000000, 26.000000)">
                    <ellipse id="Oval" fill="#EA7103" cx="3.6" cy="4.7" rx="3.2" ry="3.2"></ellipse>
                    <ellipse id="Oval" fill="#EA7103" cx="24.4" cy="4.7" rx="3.2" ry="3.2"></ellipse>
                    <ellipse id="Oval" fill="#1E4784" cx="3.6" cy="3.8" rx="3.2" ry="3.2"></ellipse>
                    <path d="M3.6,0.6 C5.4,0.6 6.8,2 6.8,3.8 C6.8,5.6 5.4,7 3.6,7" id="Shape" fill="#00233F"></path>
                    <ellipse id="Oval" fill="#1E4784" cx="24.4" cy="3.8" rx="3.2" ry="3.2"></ellipse>
                    <path d="M24.4,0.6 C26.2,0.6 27.6,2 27.6,3.8 C27.6,5.6 26.1,7 24.4,7" id="Shape" fill="#00233F"></path>
                </g>
                <g transform="translate(18.000000, 22.000000)" id="Shape">
                    <g fill="#19BCA4">
                        <path d="M6.1,3.8 C5.7,4.6 4.6,3.6 3,2.8 C1.4,2 -0.1,1.8 0.2,1 C0.6,0.2 2.2,0.2 3.8,1 C5.5,1.7 6.5,3 6.1,3.8 Z"></path>
                        <path d="M19.7,5.3 C20,6.1 21.2,5.2 22.9,4.5 C24.6,3.9 26.1,3.7 25.8,2.9 C25.5,2.1 23.9,2 22.2,2.6 C20.5,3.4 19.4,4.5 19.7,5.3 Z"></path>
                    </g>
                    <g transform="translate(0.000000, 1.000000)" fill="#109DA0">
                        <path d="M6.1,2.8 C5.7,3.6 4.6,2.6 3,1.8 C1.4,1 -0.1,0.8 0.2,0"></path>
                        <path d="M19.7,4.3 C20,5.1 21.2,4.2 22.9,3.5 C24.6,2.9 26.1,2.7 25.8,1.9"></path>
                    </g>
                </g>
                <g transform="translate(11.000000, 32.000000)" id="Shape">
                    <path d="M15.8,3.1 C15.8,4.3 12.3,3.8 8,3.8 C3.7,3.8 0.2,4.4 0.2,3.1 C0.2,1.9 3.7,0.9 8,0.9 C12.3,0.9 15.8,1.8 15.8,3.1 Z" fill="#F9C55D"></path>
                    <path d="M39.8,3.1 C39.8,4.3 36.3,3.8 32,3.8 C27.7,3.8 24.2,4.4 24.2,3.1 C24.2,1.9 27.7,0.9 32,0.9 C36.3,0.9 39.8,1.8 39.8,3.1 Z" fill="#F9A908"></path>
                </g>
                <ellipse id="Oval" fill="#F7910B" cx="9.3" cy="31.5" rx="1" ry="1"></ellipse>
                <ellipse id="Oval" fill="#F7910B" cx="4.8" cy="33.5" rx="1.1" ry="1.1"></ellipse>
                <circle id="Oval" fill="#F7910B" cx="7.8" cy="29.5" r="1"></circle>
                <circle id="Oval" fill="#F7910B" cx="12.4" cy="31.3" r="1"></circle>
                <circle id="Oval" fill="#F9A908" cx="51.6" cy="31.8" r="1"></circle>
                <circle id="Oval" fill="#F9A908" cx="54.1" cy="33.2" r="1"></circle>
                <circle id="Oval" fill="#F9A908" cx="48.8" cy="24.4" r="1"></circle>
                <ellipse id="Oval" fill="#F9A908" cx="48.3" cy="36" rx="1.3" ry="1.3"></ellipse>
                <circle id="Oval" fill="#F9A908" cx="55.5" cy="36.1" r="1"></circle>
                <circle id="Oval" fill="#F7910B" cx="8.3" cy="35.5" r="1"></circle>
                <circle id="Oval" fill="#F7910B" cx="9.1" cy="27.1" r="1"></circle>
                <ellipse id="Oval" fill="#25A1D8" cx="3.8" cy="13.3" rx="1.1" ry="1.1"></ellipse>
                <ellipse id="Oval" fill="#25A1D8" cx="7" cy="9.8" rx="1" ry="1"></ellipse>
                <circle id="Oval" fill="#0767A8" cx="58.2" cy="15.7" r="1"></circle>
                <ellipse id="Oval" fill="#0767A8" cx="57.4" cy="12.8" rx="1" ry="1"></ellipse>
                <circle id="Oval" fill="#0767A8" cx="60" cy="13.3" r="1"></circle>
                <ellipse id="Oval" fill="#25A1D8" cx="5" cy="16.3" rx="1" ry="1"></ellipse>
            </g>
            <path d="M31,0 C12.6,0 0.7,21.5 0.7,34.5 C0.7,47.5 12.6,58 31,58 C49.4,58 61.3,47.5 61.3,34.5 C61.3,21.5 49.4,0 31,0 Z M31,37 C17.6,37 6.7,36.2 6.7,27.1 C6.7,18.1 17.6,21.8 31,21.8 C44.4,21.8 55.2,18 55.2,27.1 C55.2,36.2 44.4,37 31,37 Z" id="Shape" fill="#25A1D8"></path>
            <path d="M61.3,34.5 C61.3,21.5 49.4,0 31,0 C24.5,0 18.7,2.7 14.1,6.8 C12.2,11.2 11,16.2 10.6,21.6 C14.9,20.3 22.4,21.9 31,21.9 C44.4,21.9 55.2,18.1 55.2,27.2 C55.2,36.2 44.3,37.1 31,37.1 C22.9,37.1 15.8,36.8 11.4,34.6 C13.7,46 19.9,54.9 27.8,58 L31,58 C49.4,58 61.3,47.5 61.3,34.5 Z" id="Shape" fill="#0767A8"></path>
            <path d="M31,7.2 C41.5,7.2 49.9,7.9 49.9,14.9 C49.9,22 41.5,22 31,22 C20.5,22 12.1,21.9 12.1,14.9 C12.1,7.9 20.5,7.2 31,7.2 Z" id="Shape" fill="#C8D4DB"></path>
            <path d="M12.1,14.2 C12.7,19.5 20.9,19.6 31,19.6 C41.1,19.6 49.3,19.5 49.9,14.2 C49.3,7.8 41.1,7.2 31,7.2 C20.9,7.2 12.7,7.8 12.1,14.2 Z" id="Shape" fill="#E1EAEF"></path>
            <polygon id="Shape" fill="#25A1D8" points="30.7 9 32.1 11.9 35.3 12.4 33 14.6 33.6 17.8 30.7 16.3 27.9 17.8 28.4 14.6 26.1 12.4 29.3 11.9"></polygon>
            <polygon id="Shape" fill="#0767A8" points="30.7 9 32.1 11.9 35.3 12.4 33 14.6 33.6 17.8 30.7 16.3 27.9 17.8 29.3 15.5 26.1 12.4 30.2 12.7"></polygon>
        </g>
    </g>
</svg>
